X:1
T:John Stainer
T:Plead For Me
%%score { ( 1 2 ) | ( 3 4 ) }
L:1/8
Q:1/4=184
M:4/2
K:A
V:1 treble 
V:2 treble 
V:3 bass 
V:4 bass 
V:1
"^Presto" A4 E4 F4 E4 | A4 B4 c4 A4 | B4 c4 d4 c4 | B4 ^A4 B8 | B4 B4 c4 B4 | A4 G4 A4 F4 | %6
 B4 A4 G4 (3F2 G2 A2 | G4 F4 E8 | A6 A2 A4 A4 | A4 A4 B8 | A6 A2 A4 A4 | F4 G4 A8 | A8 A8 |] %13
V:2
 C4 (C2 B,2) (A,2 B,2) C4 | C4 (E2 D2) (C2 D2) E4 | E4 E4 D4 A4 | F4 (F2 E2) D8 | %4
 E4 (E2 D2) C4 C4 | F4 =F4 ^F4 C4 | F4 ^D4 E4 E4 | E4 ^D4 E8 | C8 D4 E4 | F4 C4 E8 | C8 E8 | %11
 F4 (E2 D2) C8 | F8 E8 |] %13
V:3
 A,4 (A,2 G,2) (F,2 G,2) A,4 | A,4 G,4 (A,2 B,2) C4 | D4 ^A,4 D4 E4 | D4 C4 B,8 | %4
 B,4 (B,2 A,2) G,4 G,4 | A,4 (C2 B,2) A,4 A,4 | F,4 F,4 E,4 C4 | B,4 (B,2 A,2) G,8 | %8
 A,6 A,2 A,4 A,4 | A,4 A,4 B,8 | A,6 A,2 A,4 A,4 | (D2 C2) B,4 A,8 | A,8 C8 |] %13
V:4
 A,,4 C,4 D,4 C,4 | F,4 E,4 A,4 A,4 | A,4 =A,4 B,4 E,4 | D,4 D,4 (B,4 A,4) | %4
 G,4 (G,2 F,2) =F,4 F,4 | F,4 C,4 F,4 (F,2 E,2) | ^D,4 B,,4 C,4 A,,4 | B,,4 B,,4 E,8 | %8
 A,,8 B,,4 C,4 | D,4 A,,4 [E,G,]8 | F,8 C,8 | D,4 E,4 A,,8 | D,8 A,,8 |] %13

